assets/arrow-down-circle.svg

<svg xmlns="http://www.w3.org/2000/svg" fill="none" viewBox="0 0 28 28">
  <path fill="#2A2238" d="M14.75 4c0-.41421-.3358-.75-.75-.75s-.75.33579-.75.75h1.5Zm-1.2803 20.5303c.2929.2929.7677.2929 1.0606 0l4.773-4.7729c.2929-.2929.2929-.7678 0-1.0607-.2929-.2929-.7678-.2929-1.0607 0L14 22.9393l-4.24264-4.2426c-.29289-.2929-.76777-.2929-1.06066 0s-.29289.7678 0 1.0607l4.773 4.7729ZM13.25 4v20h1.5V4h-1.5Z"/>
  <circle cx="14" cy="14" r="13.25" stroke="#2A2238" stroke-width="1.5"/>
</svg>

<svg width="28" height="28" viewBox="0 0 28 28" fill="none" xmlns="http://www.w3.org/2000/svg">
<path d="M14.75 4C14.75 3.58579 14.4142 3.25 14 3.25C13.5858 3.25 13.25 3.58579 13.25 4H14.75ZM13.4697 24.5303C13.7626 24.8232 14.2374 24.8232 14.5303 24.5303L19.3033 19.7574C19.5962 19.4645 19.5962 18.9896 19.3033 18.6967C19.0104 18.4038 18.5355 18.4038 18.2426 18.6967L14 22.9393L9.75736 18.6967C9.46447 18.4038 8.98959 18.4038 8.6967 18.6967C8.40381 18.9896 8.40381 19.4645 8.6967 19.7574L13.4697 24.5303ZM13.25 4L13.25 24H14.75L14.75 4H13.25Z" fill="#2A2238"/>
<circle cx="14" cy="14" r="13.25" stroke="#2A2238" stroke-width="1.5"/>
</svg>
